packages/core/src/svgs/storj.svg

<svg width="24" height="24" viewBox="0 0 24 24" fill="none" xmlns="http://www.w3.org/2000/svg">
<g clip-path="url(#clip0_31_19401)">
<path d="M0 0H24V24H0V0Z" fill="#2683FF"/>
<path d="M13.2407 13.7505C12.9664 13.8953 12.6527 13.9776 12.3201 13.9776C11.8959 13.9776 11.5029 13.8443 11.1823 13.6176C10.986 13.7076 10.7666 13.7582 10.536 13.7582C9.68658 13.7582 8.99829 13.078 8.99829 12.2389C8.99829 11.4002 9.68658 10.72 10.536 10.72C10.6474 10.72 10.7559 10.7316 10.8604 10.7539C11.045 10.5503 11.2703 10.3876 11.5216 10.2765C11.773 10.1654 12.0449 10.1083 12.3197 10.1089C13.2827 10.1089 14.0833 10.7955 14.2474 11.6997C14.4945 11.7652 14.7131 11.9102 14.8693 12.1124C15.0256 12.3147 15.1109 12.5628 15.1119 12.8183C15.1119 13.4586 14.5864 13.9772 13.9384 13.9772C13.677 13.9772 13.4357 13.8932 13.2407 13.7505Z" fill="white"/>
<path fill-rule="evenodd" clip-rule="evenodd" d="M13.4464 4.85714C13.4464 4.96728 13.4335 5.074 13.4099 5.17685L17.3399 7.39471C17.601 7.17903 17.9292 7.06138 18.2678 7.06214C19.0666 7.06214 19.7142 7.702 19.7142 8.491C19.7142 9.11285 19.3114 9.64214 18.7499 9.838V14.1417C19.0306 14.2385 19.2742 14.4202 19.447 14.6616C19.6198 14.903 19.7132 15.1923 19.7142 15.4891C19.7142 16.2777 19.0666 16.9176 18.2678 16.9176C17.9215 16.9176 17.6035 16.7976 17.3549 16.597L13.4099 18.8234C13.4339 18.9263 13.4464 19.0334 13.4464 19.1431C13.4464 19.9317 12.7988 20.5716 11.9999 20.5716C11.2011 20.5716 10.5535 19.9321 10.5535 19.1431C10.5535 19.033 10.5664 18.9263 10.5899 18.8234L6.64536 16.597C6.38657 16.8052 6.06421 16.9183 5.73207 16.9176C4.93322 16.9176 4.28564 16.2781 4.28564 15.4891C4.28564 14.8673 4.6885 14.338 5.24993 14.1417V9.83842C4.96925 9.74166 4.72564 9.55996 4.55285 9.31853C4.38007 9.07709 4.28669 8.78788 4.28564 8.491C4.28564 7.702 4.93322 7.06214 5.73207 7.06214C6.08522 7.06214 6.40879 7.18728 6.65993 7.39471L10.5899 5.17685C10.5657 5.07201 10.5535 4.96475 10.5535 4.85714C10.5535 4.06857 11.2011 3.42871 11.9999 3.42871C12.7988 3.42871 13.4464 4.06814 13.4464 4.85714ZM11.9901 5.80985C12.5224 5.80985 12.9544 5.38343 12.9544 4.85714C12.9544 4.33128 12.5224 3.90485 11.9901 3.90485C11.4574 3.90485 11.0258 4.33128 11.0258 4.85714C11.0258 5.38343 11.4574 5.80985 11.9901 5.80985ZM11.9901 20.0954C12.5224 20.0954 12.9544 19.669 12.9544 19.1431C12.9544 18.6169 12.5224 18.1904 11.9901 18.1904C11.4574 18.1904 11.0258 18.6169 11.0258 19.1431C11.0258 19.669 11.4574 20.0954 11.9901 20.0954ZM6.69636 8.491C6.69636 9.01685 6.26479 9.44328 5.73207 9.44328C5.19936 9.44328 4.76779 9.01685 4.76779 8.491C4.76779 7.96471 5.19936 7.53871 5.73207 7.53871C6.26479 7.53871 6.69636 7.96471 6.69636 8.491ZM5.73207 16.4414C6.26479 16.4414 6.69636 16.015 6.69636 15.4891C6.69636 14.9633 6.26479 14.5369 5.73207 14.5369C5.19936 14.5369 4.76779 14.9633 4.76779 15.4891C4.76779 16.015 5.19936 16.4414 5.73207 16.4414ZM19.2321 15.4891C19.2321 16.015 18.8005 16.4414 18.2678 16.4414C17.7351 16.4414 17.3035 16.015 17.3035 15.4891C17.3035 14.9633 17.7351 14.5369 18.2678 14.5369C18.8005 14.5369 19.2321 14.9633 19.2321 15.4891ZM18.2678 9.44328C18.8005 9.44328 19.2321 9.01685 19.2321 8.491C19.2321 7.96471 18.8005 7.53871 18.2678 7.53871C17.7351 7.53871 17.3035 7.96471 17.3035 8.491C17.3035 9.01685 17.7351 9.44328 18.2678 9.44328ZM13.1005 14.6946C12.8465 14.7673 12.5835 14.8041 12.3192 14.8039C11.7706 14.8049 11.2337 14.645 10.7751 14.344C10.6553 14.3633 10.5342 14.3731 10.4129 14.3731C9.17736 14.3731 8.17579 13.384 8.17579 12.1634C8.17579 10.9433 9.17736 9.95414 10.4129 9.95414C10.4408 9.95414 10.4686 9.95457 10.4965 9.95585C11.005 9.52294 11.6514 9.28584 12.3192 9.28728C13.5475 9.28728 14.5906 10.0703 14.9644 11.1584C15.2699 11.3317 15.524 11.5828 15.7011 11.8862C15.8781 12.1895 15.9717 12.5343 15.9724 12.8856C15.9724 13.987 15.0681 14.8801 13.9525 14.8801C13.6482 14.8801 13.3594 14.8137 13.1005 14.6946ZM12.4799 4.85714C12.4799 5.12028 12.2644 5.33328 11.9978 5.33328C11.8708 5.33408 11.7487 5.28442 11.6583 5.19522C11.5678 5.10602 11.5166 4.98457 11.5156 4.85757C11.5156 4.59442 11.7316 4.381 11.9978 4.381C12.2644 4.381 12.4799 4.59443 12.4799 4.85714ZM11.9978 19.6193C12.2644 19.6193 12.4799 19.4059 12.4799 19.1431C12.4799 18.88 12.2644 18.667 11.9978 18.667C11.7321 18.667 11.5156 18.88 11.5156 19.1427C11.5156 19.4059 11.7316 19.6193 11.9978 19.6193ZM6.21422 15.5041C6.21422 15.7673 5.99822 15.9807 5.73207 15.9807C5.66915 15.9811 5.60677 15.9691 5.54848 15.9454C5.4902 15.9217 5.43716 15.8867 5.39239 15.8425C5.34762 15.7983 5.31199 15.7457 5.28755 15.6877C5.26311 15.6297 5.25032 15.5675 5.24993 15.5046C5.24993 15.2414 5.46593 15.028 5.73207 15.028C5.99822 15.028 6.21422 15.2414 6.21422 15.5041ZM18.2678 15.9807C18.5339 15.9807 18.7499 15.7673 18.7499 15.5046C18.7499 15.2414 18.5339 15.028 18.2678 15.028C18.0016 15.028 17.7856 15.2414 17.7856 15.5041C17.7856 15.7673 18.0016 15.9807 18.2678 15.9807ZM6.21422 8.49785C6.21422 8.761 5.99822 8.974 5.73207 8.974C5.60507 8.97479 5.48294 8.92514 5.39254 8.83593C5.30213 8.74673 5.25084 8.62529 5.24993 8.49828C5.24993 8.23514 5.46593 8.02171 5.73207 8.02171C5.99822 8.02171 6.21422 8.23514 6.21422 8.49785ZM18.2678 8.974C18.5339 8.974 18.7499 8.761 18.7499 8.49828C18.7499 8.23514 18.5339 8.02171 18.2678 8.02171C18.0016 8.02171 17.7856 8.23514 17.7856 8.49785C17.7856 8.761 18.0016 8.974 18.2678 8.974Z" fill="white"/>
<path d="M11.5178 9.71586V5.35986H12.4821V9.71586H11.5178ZM11.5178 18.6194V14.263H12.4821V18.619L11.5178 18.6194ZM9.24295 11.1207L5.92238 9.06786L6.43409 8.26086L9.75466 10.3137L9.24295 11.1207ZM14.757 11.1207L18.0775 9.06786L17.5658 8.26086L14.2457 10.3137L14.757 11.1207ZM6.43966 15.6229L9.51595 13.6634L8.99309 12.8629L5.91724 14.8227L6.44009 15.6229H6.43966ZM17.5641 15.6254L14.8277 13.9171L15.3428 13.1123L18.0792 14.8201L17.5641 15.6254Z" fill="#2683FF"/>
</g>
<defs>
<clipPath id="clip0_31_19401">
<rect width="24" height="24" fill="white"/>
</clipPath>
</defs>
</svg>

<svg xmlns="http://www.w3.org/2000/svg" width="24" height="24" fill="none" viewBox="0 0 24 24"><g clip-path="url(#a)"><path fill="#2683FF" d="M0 0h24v24H0z"/><path fill="#fff" d="M13.24 13.75a2 2 0 0 1-.92.228c-.424 0-.817-.134-1.138-.36-.196.09-.415.14-.646.14-.85 0-1.538-.68-1.538-1.52 0-.838.689-1.518 1.538-1.518q.167 0 .324.034a1.97 1.97 0 0 1 1.46-.645c.963 0 1.763.687 1.927 1.59a1.16 1.16 0 0 1 .865 1.12c0 .64-.526 1.158-1.174 1.158-.261 0-.502-.084-.697-.226"/><path fill="#fff" fill-rule="evenodd" d="M13.446 4.857q0 .165-.036.32l3.93 2.218c.261-.216.59-.334.928-.333.799 0 1.446.64 1.446 1.429a1.43 1.43 0 0 1-.964 1.347v4.304a1.43 1.43 0 0 1 .964 1.347c0 .789-.647 1.429-1.446 1.429-.346 0-.665-.12-.913-.321l-3.945 2.226q.036.155.036.32c0 .789-.647 1.429-1.446 1.429a1.438 1.438 0 0 1-1.41-1.749l-3.945-2.226a1.45 1.45 0 0 1-.913.32c-.799 0-1.446-.639-1.446-1.428 0-.622.403-1.151.964-1.347V9.838a1.43 1.43 0 0 1-.964-1.347c0-.789.647-1.429 1.446-1.429.353 0 .677.125.928.333l3.93-2.218A1.438 1.438 0 0 1 12 3.429c.799 0 1.446.64 1.446 1.428m-1.456.953a.96.96 0 0 0 .964-.953.96.96 0 0 0-.964-.952.96.96 0 0 0-.964.952c0 .526.431.953.964.953m0 14.285a.96.96 0 0 0 .964-.952.96.96 0 0 0-.964-.953.96.96 0 0 0-.964.953c0 .526.431.952.964.952M6.696 8.491a.96.96 0 0 1-.964.952.96.96 0 0 1-.964-.952c0-.526.431-.952.964-.952s.964.426.964.952m-.964 7.95a.96.96 0 0 0 .964-.952.96.96 0 0 0-.964-.952.96.96 0 0 0-.964.952c0 .526.431.952.964.952m13.5-.952a.96.96 0 0 1-.964.952.96.96 0 0 1-.965-.952c0-.526.432-.952.965-.952s.964.426.964.952m-.964-6.046a.96.96 0 0 0 .964-.952.96.96 0 0 0-.964-.952.96.96 0 0 0-.965.952c0 .526.432.952.965.952M13.1 14.695a2.83 2.83 0 0 1-2.326-.351q-.18.03-.362.03c-1.236 0-2.237-.99-2.237-2.21s1.001-2.21 2.237-2.21q.042 0 .083.002a2.8 2.8 0 0 1 1.823-.669c1.228 0 2.272.783 2.645 1.871a1.99 1.99 0 0 1 1.008 1.728c0 1.101-.904 1.994-2.02 1.994-.304 0-.593-.066-.851-.185m-.621-9.838a.48.48 0 0 1-.482.476.48.48 0 0 1-.482-.475.48.48 0 0 1 .482-.477.48.48 0 0 1 .482.476m-.482 14.762a.48.48 0 0 0 .482-.476.48.48 0 0 0-.482-.476.48.48 0 0 0-.482.476.48.48 0 0 0 .482.476m-5.784-4.115a.48.48 0 0 1-.666.441.48.48 0 0 1-.298-.44.48.48 0 0 1 .482-.477.48.48 0 0 1 .482.476m12.054.477a.48.48 0 0 0 .482-.476.48.48 0 0 0-.482-.477.48.48 0 0 0-.482.476.48.48 0 0 0 .482.477M6.214 8.498a.48.48 0 0 1-.482.476.48.48 0 0 1-.482-.476.48.48 0 0 1 .482-.476.48.48 0 0 1 .482.476m12.054.476a.48.48 0 0 0 .482-.476.48.48 0 0 0-.482-.476.48.48 0 0 0-.482.476.48.48 0 0 0 .482.476" clip-rule="evenodd"/><path fill="#2683FF" d="M11.518 9.716V5.36h.964v4.356zm0 8.903v-4.356h.964v4.356zm-2.275-7.498-3.32-2.053.511-.807 3.32 2.053zm5.514 0 3.32-2.053-.511-.807-3.32 2.053zM6.44 15.623l3.076-1.96-.523-.8-3.076 1.96zm11.124.002-2.736-1.708.515-.805 2.736 1.708z"/></g><defs><clipPath id="a"><path fill="#fff" d="M0 0h24v24H0z"/></clipPath></defs></svg>
